X: 159
T: Bonny Lea Rig
T: Jig, D
C: R.E. Joudrey
L: 1/16
M: 6/8
K: D
|: D2F2D2 A,2D2F2| B2A2F2 d2A2F2| G2F2G2 B2G2D2| B,6 B,2C2B,2| A,4B,2 C4D2| E4F2 G4A2| [1 c2B2A2 c2B2A2| F6 F2G2F2:|
[2 c2B2A2 A,2F2E2| D6 D4A2|] |: d2A2d2 d4e2| f4d2 A4F2| G2F2G2 B2G2D2| B,6 B,2C2B,2| A,4B,2 C4D2| E4F2 G4A2|
[1 c2B2A2 c2B2A2| F6 F4A2:| [2 c2B2A2 A,2F2E2| D6 D4A,2|]
D: Buddy MacMaster, Judique on the Floor, ACD-9020
